X: 4734
T: Boys Of Ballivanich, The
R: reel
M: 4/4
K: Bminor
~f3e dBBB|ABBd faag|~f3e deBd|cAAA EAce|
~f3e dBBB|ABBd faaf|g2fg ~e3d|1 cAAA EAce:|2 cAAA eAcA||
Bfag ~f3e|dBBB dfff|ceag efed|cAAA eAcA|
dfag ~f3e|dBBB dfff|a2ag efed|1 cAAA eAcA:|2 cAAA EAce||

